public/static/img/market/checked.svg

<svg xmlns="http://www.w3.org/2000/svg" viewBox="0 0 20 20" fill="none"><rect width="20" height="20" rx="6" fill="#00A609"/><path d="M8.52645 13.3945C8.34635 13.3895 8.17542 13.3219 8.04962 13.2059L5.20301 10.6602C5.07277 10.5388 5 10.3767 5 10.208C5 10.0394 5.07277 9.87731 5.20301 9.7559C5.2686 9.69655 5.3466 9.64945 5.43253 9.61731C5.51845 9.58517 5.6106 9.56862 5.70367 9.56862C5.79674 9.56862 5.88889 9.58517 5.97481 9.61731C6.06074 9.64945 6.13874 9.69655 6.20433 9.7559L8.52645 11.8559L14.4581 7.18875C14.5229 7.12901 14.6004 7.08153 14.686 7.04912C14.7716 7.0167 14.8635 7 14.9564 7C15.0492 7 15.1412 7.0167 15.2267 7.04912C15.3123 7.08153 15.3898 7.12901 15.4547 7.18875C15.5207 7.2477 15.5731 7.31781 15.6088 7.39504C15.6446 7.47227 15.663 7.5551 15.663 7.63875C15.663 7.7224 15.6446 7.80523 15.6088 7.88246C15.5731 7.95969 15.5207 8.0298 15.4547 8.08875L9.02712 13.2059C8.89458 13.3258 8.71453 13.3937 8.52645 13.3945Z" fill="#171717"/></svg>

<svg xmlns="http://www.w3.org/2000/svg" viewBox="0 0 20 20" fill="none"><rect width="20" height="20" rx="6" fill="#00A609"/><path d="M8.526 13.395a.734.734 0 0 1-.476-.19L5.203 10.66A.618.618 0 0 1 5 10.208a.62.62 0 0 1 .203-.452.715.715 0 0 1 .23-.139.775.775 0 0 1 .771.139l2.322 2.1 5.932-4.667a.703.703 0 0 1 .228-.14.764.764 0 0 1 .54 0 .705.705 0 0 1 .383.346.579.579 0 0 1 0 .487.634.634 0 0 1-.154.207l-6.428 5.117a.753.753 0 0 1-.5.189Z" fill="#171717"/></svg>
